X:1
T:Bach for Solo Flute
T:Prélude
T:Bach for Solo Flute (X)
T:Prélude from Suite No. 2 for Cello (BWV 1008) Transcription for Flute 
T:Johann Sebastian Bach (1685-1750)
T:Transcription by Felix Scharpf
T:twoflutes 2020 / Felix Scharpf / Johann_Sebastian_Bach_signature.svg-2.png
T:twoflutes 2020 / Felix Scharpf / Johann_Sebastian_Bach_signature.svg-2.png
T:twoflutes 2020 / Felix Scharpf / Johann_Sebastian_Bach_signature.svg-2.png
C:Johann Sebastian Bach (1685-1750)
Z:twoflutes 2020 / Felix Scharpf / Johann_Sebastian_Bach_signature.svg-2.png
L:1/8
Q:1/4=86
M:3/4
K:F
V:1 treble nm="Flöte" snm="Fl."
V:1
!mf! !tenuto!df a2- a/(f/e/d/) | (.^c/e/g/a/) b2- b/(a/g/f/) | .e/(g/b/^c'/) e'>b (.a/g/f/e/) | %3
 (f/g/a/f/) (dcBA) | .B/(d/f/a/) d'>c' (.b/a/g/f/) | (.e/g/b/d'/) (c'/a/)(b/g/) (f/e/)(g/B/) | %6
 (.A/c/e/g/) c'>b (.a/g/f/e/) | .d/(f/a/c'/) (b/g/)(a/f/) (e/f/a/f/) | %8
"_dim." .G/(B/d/f/) b>a .g/(f/e/g/) | (.A/c/e/g/) (c'/a/e/g/) (f/a/)(d/_e/) | %10
 .d/(A/B/d/) (g/b/)(a/c'/) (b/g/)(d'/f/) | .e/(=B/c/e/) (g/d/)(e/c/) (_B/G/)(e/B/) | %12
!mp! !tenuto!FA c2- c/(B/A/G/) | (.^F/A/B/c/) .D/(c/B/A/) (^f/_e/d/c/) | %14
"_cresc." (B/A/G/).B/ d2- d/(c/B/A/) | .^G/(=B/c/d/) .E/(d/c/B/) (^g/=f/e/d/) | %16
 (c/=B/A/c/) (f/e/f/^g/) (a/f/d/c/) | .=B/(d/^g/=b/) d'>c' .b/(a/g/a/) | %18
 .c/(e/a/c'/) e'>c' .=b/(a/^g/a/) |!mf! .d/(f/a/d'/) f'>e' .d'/(c'/=b/d'/) | %20
"_dim." !>!e/(d'/c'/=b/) !>!a/(c'/b/a/) !>!d/(b/a/^g/) | %21
 !>!c/(a/=g/f/)"_cresc." !>!^c/(g/f/e/) !>!d/(f/e/d/) | %22
 !>!^G/(d/e/f/) !>!=b/(f/e/d/) !>!G/(d/c/=B/) | (!>!A/=B/c/e/) (a/=b/c'/a/) .e/(c/A/=G/) | %24
 (.^F/A/c/d/) _e>d (c/_B/c/).a/ | (B/A/B/).d/ !>!G/(_e/f/g/) !>!A/(g/f/e/) | %26
 !>!d/(c/d/f/) !>!B/(g/a/b/) !>!^c/(b/a/g/) | (f/e/f/).a/ .d/(b/c'/d'/) .e/(d'/c'/b/) | %28
 (a/g/a/).c'/ .f/(d'/e'/f'/) .g/(f'/e'/d'/) |!mf! .^c'/(g/f/e/) .A/(e/f/g/) .c'/(_b/a/g/) | %30
 (f/g/a/).^c'/ .d'/(a/g/f/) .a/(f/e/d/) |"_dim." .^g/(d/e/f/) .A/(f/e/d/) .g/(=f/e/d/) | %32
!mp! (^c/=B/c/).e/ .a/(e/c/e/) .A/(g/f/e/) |"_cresc." (f/e/f/).a/ .d'/(a/f/a/) .d/(c'/b/a/) | %34
 (g/f/g/).^c'/ (e'/c'/)(g/c'/) .A/(g/f/e/) | .d/(a/d'/e'/) .f'/(d'/a/f/) .d/(c'/b/a/) | %36
 (g/a/b/).d/ (_e/f/g/a/) (b/g/)(_e'/g/) | (f/g/a/).^c/ (d/e/f/g/) (a/f/)(d'/f/) | %38
!mf! (e/f/g/).B/ (A/=B/^c/d/) (e/_B/)(g/B/) | !tenuto!^CA g2- g/(b/a/g/) | %40
 .f/(e/d/e/) (f/d/)(a/f/) .d'/(a/f/d/) | !tenuto!^Gf d'2- d'/(f'/e'/d'/) | %42
 .^c'/(=b/a/b/) (c'/a/)(d'/a/) (e'/a/)(f'/a/) | .g'/(e'/^c'/e'/) .a/(c'/e'/f'/) (g'/f'/g'/).e'/ | %44
 .f'/(d'/^c'/d'/) .a/(c'/d'/e'/) (f'/e'/f'/).d'/ | .e'/(^c'/=b/c'/) (a/b/c'/d'/) (e'/d'/e'/).c'/ | %46
 .d'/(=b/a/b/) (f/^g/b/).^c'/ (d'/c'/d'/).b/ |[Q:1/4=60]!f! (!>!G/e/ !fermata!^c'3) !fermata!z2 | %48
[Q:1/4=86]!mp! ._b/(g/^f/g/) (_e/g/)(d/g/) (e/g/b/).d/ | (.^c/=e/g/a/)"_cresc." b>a (g/^f/g/).e'/ | %50
 .=f/(d'/b/g/) .a/(f/e/g/) .f/(d/^c/e/) | .d/(B/A/G/) .^F/(A/c/_e/) (d/c/B/A/) | %52
 .B/(G/^F/G/) (_E/G/)(D/G/) (E/G/B/).D/ | %53
[Q:1/4=40]!p!({!>!^CB)} (g>[Q:1/4=86]f e/d/^c/=B/ A/G/F/E/) | %54
"_cresc." .D/(A/d/e/) (f/e/d/c/ B/A/G/F/) | .E/(A/^c/e/) (g/f/e/d/ c/=B/A/G/) | %56
"_cresc." .F/(A/d/f/) .a/(d/f/a/) (d'/b/)(c'/a/) | .G/(d/g/a/) .b/(g/^f/g/) (_e'/g/)(d'/g/) | %58
 .A/(e/g/a/) .b/(a/^g/a/) (^c'/a/)(e'/a/) | .A/(d/f/a/) .b/(a/^g/a/) (d'/a/)(f'/a/) | %60
 .A/(e/g/a/) .b/(a/^g/a/) (d'/a/)(g'/a/) | %61
"_riten." .A/[Q:1/4=80](e/g/[Q:1/4=74]a/) .b/(a/[Q:1/4=66]^g/a/) (^c'/[Q:1/4=52]a/)(e'/a/) | %62
!f![Q:1/4=40] (!>!D/A/!mp! !fermata!d'6) |] %63

